resources/svg/major-credit-card-percent.svg

<svg xmlns="http://www.w3.org/2000/svg" viewBox="0 0 20 20" fill="currentColor"><path d="M1.5 1a1.5 1.5 0 0 0-1.5 1.5v1.5h20v-1.5a1.5 1.5 0 0 0-1.5-1.5h-17z"/><path d="M0 13.5v-7.5h20v3h-6c-2.757 0-5 2.236-5 4.987v1.013h-7.5a1.5 1.5 0 0 1-1.5-1.5zm2-3.5h5v-2h-5v2z"/><circle cx="13.5" cy="12.5" r="1.5"/><circle cx="18.5" cy="17.5" r="1.5"/><path d="M19.707 11.293a1 1 0 0 1 0 1.414l-6 6a1 1 0 0 1-1.414-1.414l6-6a1 1 0 0 1 1.414 0z"/></svg>

<svg xmlns="http://www.w3.org/2000/svg" viewBox="0 0 20 20" fill="currentColor"><path d="M1.5 1A1.5 1.5 0 000 2.5V4h20V2.5A1.5 1.5 0 0018.5 1h-17z" fill="#5C5F62"/><path d="M0 13.5V6h20v3h-6c-2.757 0-5 2.236-5 4.987V15H1.5A1.5 1.5 0 010 13.5zM2 10h5V8H2v2z" fill="#5C5F62"/><circle cx="13.5" cy="12.5" r="1.5" fill="#5C5F62"/><circle cx="18.5" cy="17.5" r="1.5" fill="#5C5F62"/><path d="M19.707 11.293a1 1 0 010 1.414l-6 6a1 1 0 01-1.414-1.414l6-6a1 1 0 011.414 0z" fill="#5C5F62"/></svg>
